jsapp/svg-icons/grid.svg

<svg height="40" viewBox="0 0 40 40" width="40" xmlns="http://www.w3.org/2000/svg"><path d="m12 12v2h1.997l.003-2zm2 4h-2c-1.103 0-2-.897-2-2v-2c0-1.102.897-2 2-2h2c1.103 0 2 .898 2 2v2c0 1.103-.897 2-2 2zm-2 3v2h1.997l.003-2zm2 4h-2c-1.103 0-2-.897-2-2v-2c0-1.102.897-2 2-2h2c1.103 0 2 .898 2 2v2c0 1.103-.897 2-2 2zm-2 3v2h1.997l.003-2zm2 4h-2c-1.103 0-2-.897-2-2v-2c0-1.103.897-2 2-2h2c1.103 0 2 .897 2 2v2c0 1.103-.897 2-2 2zm5-18v2h1.997l.003-2zm2 4h-2c-1.103 0-2-.897-2-2v-2c0-1.102.897-2 2-2h2c1.103 0 2 .898 2 2v2c0 1.103-.897 2-2 2zm-2 3v2h1.997l.003-2zm2 4h-2c-1.103 0-2-.897-2-2v-2c0-1.102.897-2 2-2h2c1.103 0 2 .898 2 2v2c0 1.103-.897 2-2 2zm-2 3v2h1.997l.003-2zm2 4h-2c-1.103 0-2-.897-2-2v-2c0-1.103.897-2 2-2h2c1.103 0 2 .897 2 2v2c0 1.103-.897 2-2 2zm5-18v2h1.997l.003-2zm2 4h-2c-1.103 0-2-.897-2-2v-2c0-1.102.897-2 2-2h2c1.103 0 2 .898 2 2v2c0 1.103-.897 2-2 2zm-2 3v2h1.997l.003-2zm2 4h-2c-1.103 0-2-.897-2-2v-2c0-1.102.897-2 2-2h2c1.103 0 2 .898 2 2v2c0 1.103-.897 2-2 2zm-2 3v2h1.997l.003-2zm2 4h-2c-1.103 0-2-.897-2-2v-2c0-1.103.897-2 2-2h2c1.103 0 2 .897 2 2v2c0 1.103-.897 2-2 2z" fill-rule="evenodd"/></svg>

<?xml version="1.0" encoding="UTF-8"?>
<svg width="40px" height="40px" viewBox="0 0 40 40" version="1.1" xmlns="http://www.w3.org/2000/svg" xmlns:xlink="http://www.w3.org/1999/xlink">
    <!-- Generator: Sketch 50.2 (55047) - http://www.bohemiancoding.com/sketch -->
    <title>Icons/grid</title>
    <desc>Created with Sketch.</desc>
    <defs>
        <path d="M12,12 L12,14 L13.997,14 L14,12 L12,12 Z M14,16 L12,16 C10.897,16 10,15.103 10,14 L10,12 C10,10.898 10.897,10 12,10 L14,10 C15.103,10 16,10.898 16,12 L16,14 C16,15.103 15.103,16 14,16 L14,16 Z M12,19 L12,21 L13.997,21 L14,19 L12,19 Z M14,23 L12,23 C10.897,23 10,22.103 10,21 L10,19 C10,17.898 10.897,17 12,17 L14,17 C15.103,17 16,17.898 16,19 L16,21 C16,22.103 15.103,23 14,23 L14,23 Z M12,26 L12,28 L13.997,28 L14,26 L12,26 Z M14,30 L12,30 C10.897,30 10,29.103 10,28 L10,26 C10,24.897 10.897,24 12,24 L14,24 C15.103,24 16,24.897 16,26 L16,28 C16,29.103 15.103,30 14,30 L14,30 Z M19,12 L19,14 L20.997,14 L21,12 L19,12 Z M21,16 L19,16 C17.897,16 17,15.103 17,14 L17,12 C17,10.898 17.897,10 19,10 L21,10 C22.103,10 23,10.898 23,12 L23,14 C23,15.103 22.103,16 21,16 L21,16 Z M19,19 L19,21 L20.997,21 L21,19 L19,19 Z M21,23 L19,23 C17.897,23 17,22.103 17,21 L17,19 C17,17.898 17.897,17 19,17 L21,17 C22.103,17 23,17.898 23,19 L23,21 C23,22.103 22.103,23 21,23 L21,23 Z M19,26 L19,28 L20.997,28 L21,26 L19,26 Z M21,30 L19,30 C17.897,30 17,29.103 17,28 L17,26 C17,24.897 17.897,24 19,24 L21,24 C22.103,24 23,24.897 23,26 L23,28 C23,29.103 22.103,30 21,30 L21,30 Z M26,12 L26,14 L27.997,14 L28,12 L26,12 Z M28,16 L26,16 C24.897,16 24,15.103 24,14 L24,12 C24,10.898 24.897,10 26,10 L28,10 C29.103,10 30,10.898 30,12 L30,14 C30,15.103 29.103,16 28,16 L28,16 Z M26,19 L26,21 L27.997,21 L28,19 L26,19 Z M28,23 L26,23 C24.897,23 24,22.103 24,21 L24,19 C24,17.898 24.897,17 26,17 L28,17 C29.103,17 30,17.898 30,19 L30,21 C30,22.103 29.103,23 28,23 L28,23 Z M26,26 L26,28 L27.997,28 L28,26 L26,26 Z M28,30 L26,30 C24.897,30 24,29.103 24,28 L24,26 C24,24.897 24.897,24 26,24 L28,24 C29.103,24 30,24.897 30,26 L30,28 C30,29.103 29.103,30 28,30 L28,30 Z" id="path-1"></path>
    </defs>
    <g id="Icons/grid" stroke="none" stroke-width="1" fill="none" fill-rule="evenodd">
        <mask id="mask-2" fill="white">
            <use xlink:href="#path-1"></use>
        </mask>
        <use id="Mask" fill="#000000" xlink:href="#path-1"></use>
    </g>
</svg>
